X:72
%
T:Johnny Docherty's
C:Traditional
L:1/8
M:9/8
Q:1/4=80
K:G treble
%
|: "G" B2 d d2 A BAG | "C" E2 A A2 B cBA | "G" B2 d D2 A BAG | "D" D2 G G2 A BAG |
"G" B2 d d2 A BAG | "C" D2 A A2 B cBA | "G" B2 d d2 A2 BAG | "D" D2 G G2 A BAG :|
|: "G" B2 d e2 f g3 | "D" a2 A A2 B cBA | "G" B2 d e2 f g2 a | "C" gfe d2 A BAG |
"G" B2 d e2 f g3 | "D" a2 A A2 B cBA | "G" B2 d e2 f g2 a | gfe d2 A BAG :|

